src/assets/rclone-symbolic.svg

<svg width="12" height="12" viewBox="0 0 12 12" xmlns="http://www.w3.org/2000/svg">
    <path fill-rule="evenodd" clip-rule="evenodd"
        d="M12 6C12 9.31371 9.31371 12 6 12C2.68629 12 0 9.31371 0 6C0 2.68629 2.68629 0 6 0C9.31371 0 12 2.68629 12 6ZM4.14664 3.74514C4.73746 2.72182 6.04602 2.37118 7.06945 2.962C8.09288 3.55282 8.44352 4.86147 7.8526 5.8848L7.42169 6.63303L6.72422 6.63313L6.37559 6.02906L6.80669 5.28103C7.06403 4.83528 6.91133 4.26533 6.46558 4.008C6.01983 3.75056 5.44988 3.90336 5.19244 4.3491C5.10496 4.5007 5.06593 4.66664 5.06864 4.82977L4.63974 4.83017C4.36816 4.83017 4.10751 4.87722 3.86492 4.9626C3.83613 4.55186 3.92522 4.12849 4.14664 3.74514ZM5.11792 7.96942L5.33281 8.34072C5.46856 8.57579 5.63921 8.77835 5.83445 8.94579C5.49324 9.17584 5.0822 9.31027 4.63966 9.31027C3.45792 9.31027 2.5 8.35226 2.5 7.17052C2.5 5.98888 3.45792 5.03087 4.63966 5.03087L5.50307 5.03007L5.8519 5.63403L5.50307 6.23799L4.63976 6.23859C4.12499 6.23859 3.70773 6.65585 3.70773 7.17052C3.70773 7.68529 4.12499 8.10255 4.63976 8.10255C4.81483 8.10255 4.97796 8.05339 5.11792 7.96942ZM8.29903 5.248C8.66913 5.42839 8.99118 5.71733 9.2125 6.10067C9.80332 7.1241 9.45268 8.43265 8.42935 9.02347C7.40593 9.61439 6.09737 9.26375 5.50645 8.24032L5.07394 7.49299L5.42267 6.88903H6.12014L6.55235 7.63646C6.80969 8.08221 7.37974 8.23491 7.82539 7.97757C8.27114 7.72023 8.42394 7.15018 8.1666 6.70453C8.07901 6.55284 7.95481 6.43616 7.81215 6.3569L8.02634 5.9852C8.16208 5.75003 8.25168 5.50082 8.29903 5.248Z" />
</svg>

<svg xmlns="http://www.w3.org/2000/svg" width="12" height="12" viewBox="0 0 12 12"><path fill-rule="evenodd" d="M12 6A6 6 0 1 1 0 6a6 6 0 0 1 12 0M4.147 3.745a2.14 2.14 0 0 1 3.706 2.14l-.431.748h-.698l-.348-.604.43-.748A.932.932 0 1 0 5.07 4.83h-.43a2.3 2.3 0 0 0-.774.133c-.029-.411.06-.835.282-1.218m.97 4.224.216.372c.136.235.306.437.501.605A2.14 2.14 0 1 1 4.64 5.03h.864l.349.603-.349.604H4.64a.932.932 0 1 0 .478 1.731M8.3 5.248A2.14 2.14 0 1 1 5.506 8.24l-.432-.747.349-.604h.697l.432.747a.932.932 0 1 0 1.26-1.28l.214-.37a2.3 2.3 0 0 0 .273-.738" clip-rule="evenodd"/></svg>
